X: 3264
M: 6/8
L: 1/8
K: G
|:\
d2B BcB | def gfe | d2B BcB | A2B cBA |\
d2B BcB | def gfe | dBG DEF | G3  G3 :|
|:\


